svg/tailwind.svg

<svg xmlns="http://www.w3.org/2000/svg" viewBox="0 0 24 24"><path d="M12 6c-2.67 0-4.33 1.33-5 4 1-1.33 2.17-1.83 3.5-1.5.76.19 1.31.74 1.91 1.35.98 1 2.09 2.15 4.59 2.15 2.67 0 4.33-1.33 5-4-1 1.33-2.17 1.83-3.5 1.5-.76-.19-1.3-.74-1.91-1.35C15.61 7.15 14.5 6 12 6m-5 6c-2.67 0-4.33 1.33-5 4 1-1.33 2.17-1.83 3.5-1.5.76.19 1.3.74 1.91 1.35C8.39 16.85 9.5 18 12 18c2.67 0 4.33-1.33 5-4-1 1.33-2.17 1.83-3.5 1.5-.76-.19-1.3-.74-1.91-1.35C10.61 13.15 9.5 12 7 12"/></svg>

<?xml version="1.0" encoding="UTF-8"?><!DOCTYPE svg PUBLIC "-//W3C//DTD SVG 1.1//EN" "http://www.w3.org/Graphics/SVG/1.1/DTD/svg11.dtd"><svg xmlns="http://www.w3.org/2000/svg" xmlns:xlink="http://www.w3.org/1999/xlink" version="1.1" id="mdi-tailwind" width="24" height="24" viewBox="0 0 24 24"><path d="M12 6C9.33 6 7.67 7.33 7 10C8 8.67 9.17 8.17 10.5 8.5C11.26 8.69 11.81 9.24 12.41 9.85C13.39 10.85 14.5 12 17 12C19.67 12 21.33 10.67 22 8C21 9.33 19.83 9.83 18.5 9.5C17.74 9.31 17.2 8.76 16.59 8.15C15.61 7.15 14.5 6 12 6M7 12C4.33 12 2.67 13.33 2 16C3 14.67 4.17 14.17 5.5 14.5C6.26 14.69 6.8 15.24 7.41 15.85C8.39 16.85 9.5 18 12 18C14.67 18 16.33 16.67 17 14C16 15.33 14.83 15.83 13.5 15.5C12.74 15.31 12.2 14.76 11.59 14.15C10.61 13.15 9.5 12 7 12Z" /></svg>
